X: 1
T: The Maids Of Ballinacarty
R: jig
M: 6/8
L: 1/8
K: Dmaj
|:ded cAG|F2D DED|E2c cBc|ded cAG|
Bcd cAG|F2D DED|F2A ABG|F2D D3:|
|:A2d dcd|f2d dcd|e2c cBc|e2c cBc|
e2f gfg|aba a2g|fed efg|f2d d3:|

